src/assets/images/toolbox/jest.svg

<svg
  width="29"
  height="32"
  viewBox="0 0 29 32"
  fill="transparent"
  xmlns="http://www.w3.org/2000/svg">
  <path
    fill="#99425B"
    d="M27.1843 15.7554C27.1843 14.1105 25.8496 12.7769 24.2032 12.7769C24.0972 12.7769 23.9928 12.7826 23.8898 12.7935L27.9844 0.727453H10.5838L14.6727 12.7829C14.6124 12.7791 14.552 12.7772 14.4915 12.777C12.8451 12.777 11.5104 14.1104 11.5104 15.7556C11.5104 17.0852 12.3826 18.2109 13.5863 18.5939C12.9506 19.6942 12.1505 20.6852 11.2422 21.5415C10.0071 22.7056 8.59362 23.5884 7.06483 24.1323C5.24461 23.198 4.38512 21.1203 5.16064 19.2986C5.24824 19.0928 5.33766 18.8843 5.42311 18.6767C6.74175 18.3692 7.72448 17.1881 7.72448 15.7769C7.72448 14.1318 6.38974 12.7983 4.74326 12.7983C3.09678 12.7983 1.76215 14.1318 1.76215 15.7769C1.76215 16.7856 2.26441 17.6767 3.03232 18.2155C2.29448 19.894 1.20984 21.6507 0.871897 23.6867C0.466888 26.1266 0.870535 28.7167 2.98273 30.1794C7.90185 33.5859 13.2415 28.0677 18.8715 26.6805C20.9118 26.1779 23.1516 26.2588 24.9492 25.2187C26.2992 24.4375 27.1892 23.1428 27.4417 21.6894C27.6914 20.2535 27.3275 18.8239 26.491 17.6647C26.9398 17.1296 27.1853 16.4535 27.1843 15.7554Z"
  />
  <path
    fill="white"
    d="M26.7244 21.5649C26.5051 22.8268 25.7251 23.929 24.5844 24.5892C23.521 25.2045 22.2467 25.3882 20.8974 25.5825C20.1747 25.6866 19.4273 25.7944 18.6972 25.9742C16.7667 26.4499 14.8967 27.3779 13.0886 28.2753C9.46969 30.0713 6.34445 31.6221 3.39761 29.5815C1.239 28.0868 1.33864 25.3212 1.59011 23.8057C1.82319 22.4016 2.45335 21.1085 3.06262 19.858C3.16642 19.6455 3.26939 19.4326 3.37151 19.2192C3.67864 19.3419 4.00091 19.4227 4.32962 19.4594C3.70934 21.5047 4.68481 23.7285 6.7321 24.7793L7.0124 24.9232L7.30903 24.8176C8.92759 24.2417 10.4191 23.3176 11.7419 22.0705C12.597 21.2645 13.3322 20.3728 13.9365 19.4199C14.1202 19.4476 14.3057 19.4615 14.4915 19.4615C16.3706 19.4615 17.9266 18.058 18.1675 16.2452C18.9366 16.2171 19.7536 16.2169 20.5271 16.245C20.7677 18.058 22.324 19.4616 24.2031 19.4616C24.9888 19.4616 25.7176 19.2156 26.318 18.7977C26.7348 19.6502 26.8904 20.6094 26.7244 21.5649ZM4.74337 13.5258C5.98574 13.5258 6.99639 14.5357 6.99639 15.777C6.99673 16.2066 6.87323 16.6273 6.64064 16.9887C6.26615 17.5723 5.62953 17.9723 4.89815 18.0222C4.84698 18.0256 4.79534 18.028 4.74337 18.028C4.46648 18.028 4.20128 17.9776 3.95605 17.886C3.46216 17.7004 3.04858 17.3485 2.78664 16.8908C2.59213 16.5518 2.48994 16.1678 2.49023 15.777C2.49023 14.5357 3.50099 13.5258 4.74337 13.5258ZM12.2386 15.7556C12.2386 14.6277 13.073 13.6913 14.1572 13.5294C14.2664 13.513 14.378 13.5045 14.4916 13.5045C15.2139 13.5045 15.857 13.8463 16.2694 14.376C16.3727 14.5081 16.4609 14.6513 16.5324 14.8029C16.6725 15.101 16.7449 15.4263 16.7446 15.7556C16.7446 15.9355 16.7229 16.1104 16.6828 16.2782C16.4632 17.1966 15.6794 17.8987 14.7189 17.9953C14.6442 18.0028 14.5684 18.0066 14.4916 18.0066C14.0582 18.007 13.6341 17.8817 13.2706 17.646C12.6503 17.2445 12.2386 16.5473 12.2386 15.7556ZM21.6421 13.0786C21.1518 13.5462 20.7989 14.1389 20.6218 14.7926C19.7726 14.7613 18.9225 14.7613 18.0733 14.7926C17.8826 14.086 17.4875 13.4626 16.9558 12.9892L19.2873 8.27909L21.6421 13.0786ZM11.5994 1.45513H26.9687L23.3386 12.1521C23.1824 12.1894 23.0289 12.237 22.8789 12.2944L19.2929 4.98548L15.6968 12.2507C15.54 12.1969 15.3798 12.1538 15.2172 12.1216L11.5994 1.45513ZM26.4561 15.7557C26.4561 15.9813 26.4224 16.1992 26.3603 16.405C26.2131 16.8895 25.9072 17.3105 25.4919 17.6006C25.1144 17.8653 24.6643 18.0071 24.2031 18.0067C23.1628 18.0067 22.2853 17.2984 22.0272 16.3392C21.976 16.1489 21.9501 15.9527 21.9501 15.7557C21.9501 15.4479 22.0123 15.1545 22.1246 14.8872C22.1826 14.7504 22.254 14.6196 22.3377 14.4969C22.7432 13.8989 23.4274 13.5046 24.2031 13.5046C24.2742 13.5046 24.3444 13.5082 24.4139 13.5148C25.5578 13.6213 26.4561 14.5853 26.4561 15.7557ZM27.9124 15.7557C27.9124 13.9463 26.6076 12.4367 24.8891 12.1142L29 0H9.5683L13.6856 12.1387C12.0267 12.5075 10.7824 13.9886 10.7824 15.7556C10.7824 17.0823 11.4842 18.2477 12.5359 18.9026C12.03 19.6556 11.4302 20.3643 10.7427 21.0124C9.65239 22.0399 8.43781 22.8193 7.12837 23.3321C5.8094 22.5043 5.25187 20.9432 5.83084 19.5833L5.96135 19.2767C7.41003 18.7718 8.45257 17.3942 8.45257 15.777C8.45257 13.7334 6.78861 12.0709 4.74337 12.0709C2.69801 12.0709 1.03406 13.7334 1.03406 15.777C1.03406 16.8084 1.45847 17.7424 2.14139 18.415C2.01402 18.6846 1.88473 18.9534 1.75352 19.2212C1.12904 20.5025 0.42138 21.9548 0.153681 23.5676C-0.377858 26.7706 0.479595 29.3311 2.56819 30.7773C3.83553 31.6549 5.12262 32 6.41776 32C8.85644 32 11.3235 30.7758 13.7364 29.5783C15.4741 28.716 17.2711 27.8243 19.046 27.3869C19.7065 27.2242 20.386 27.1262 21.1054 27.0226C22.5322 26.8169 24.0075 26.6043 25.3143 25.8482C26.8291 24.9715 27.866 23.501 28.1592 21.8138C28.4109 20.3654 28.108 18.9147 27.3693 17.6843C27.7253 17.1039 27.9132 16.4364 27.9124 15.7557Z"
  />
</svg>

<svg xmlns="http://www.w3.org/2000/svg" width="29" height="32" fill="transparent" xmlns:v="https://vecta.io/nano">
  <path fill="#99425b"
    d="M27.184 15.755a2.98 2.98 0 0 0-2.981-2.979c-.106 0-.21.006-.313.017L27.984.727H10.584l4.089 12.055-.181-.006a2.98 2.98 0 0 0-.905 5.817c-.636 1.1-1.436 2.091-2.344 2.948-1.235 1.164-2.649 2.047-4.177 2.591-1.82-.934-2.68-3.012-1.904-4.834l.262-.622a2.98 2.98 0 0 0-.68-5.878 2.98 2.98 0 0 0-2.981 2.979c0 1.009.502 1.9 1.27 2.439-.738 1.678-1.822 3.435-2.16 5.471-.405 2.44-.001 5.03 2.111 6.493 4.919 3.407 10.259-2.112 15.889-3.499 2.04-.503 4.28-.422 6.078-1.462 1.35-.781 2.24-2.076 2.492-3.529.25-1.436-.114-2.866-.951-4.025.449-.535.694-1.211.693-1.909z" />
  <path fill="#fff"
    d="M26.724 21.565c-.219 1.262-.999 2.364-2.14 3.024-1.063.615-2.338.799-3.687.993l-2.2.392c-1.93.476-3.8 1.404-5.609 2.301-3.619 1.796-6.744 3.347-9.691 1.306-2.159-1.495-2.059-4.26-1.807-5.776.233-1.404.863-2.697 1.473-3.948l.309-.639c.307.123.629.203.958.24-.62 2.045.355 4.269 2.402 5.32l.28.144.297-.106c1.619-.576 3.11-1.5 4.433-2.747.855-.806 1.59-1.698 2.195-2.651a3.72 3.72 0 0 0 .555.042c1.879 0 3.435-1.404 3.676-3.216h2.36c.241 1.813 1.797 3.217 3.676 3.217a3.69 3.69 0 0 0 2.115-.664c.417.853.572 1.812.406 2.767zM4.743 13.526c1.242 0 2.253 1.01 2.253 2.251 0 .43-.123.85-.356 1.212-.374.584-1.011.984-1.742 1.034l-.155.006c-.277 0-.542-.05-.787-.142-.494-.186-.907-.537-1.169-.995-.195-.339-.297-.723-.296-1.114 0-1.241 1.011-2.251 2.253-2.251zm7.495 2.23c0-1.128.834-2.064 1.919-2.226a2.25 2.25 0 0 1 2.112.847c.103.132.191.275.263.427.14.298.213.623.212.953 0 .18-.022.355-.062.523a2.26 2.26 0 0 1-1.964 1.717c-.075.008-.15.011-.227.011a2.24 2.24 0 0 1-1.221-.361 2.25 2.25 0 0 1-1.032-1.89zm9.404-2.677a3.71 3.71 0 0 0-1.02 1.714c-.849-.031-1.699-.031-2.549 0-.191-.707-.586-1.33-1.117-1.803l2.331-4.71 2.355 4.8zM11.599 1.455h15.369l-3.63 10.697c-.156.037-.31.085-.46.142l-3.586-7.309-3.596 7.265a3.68 3.68 0 0 0-.48-.129L11.599 1.455zm14.857 14.301c0 .226-.034.444-.096.649a2.26 2.26 0 0 1-.868 1.196 2.24 2.24 0 0 1-1.289.406c-1.04 0-1.918-.708-2.176-1.667-.051-.19-.077-.387-.077-.584 0-.308.062-.601.175-.868.058-.137.129-.268.213-.39a2.25 2.25 0 0 1 1.865-.992l.211.01c1.144.107 2.042 1.071 2.042 2.241zm1.456 0c0-1.809-1.305-3.319-3.023-3.641L29 0H9.568l4.117 12.139c-1.659.369-2.903 1.85-2.903 3.617 0 1.327.702 2.492 1.753 3.147-.506.753-1.106 1.462-1.793 2.11-1.09 1.027-2.305 1.807-3.614 2.32-1.319-.828-1.876-2.389-1.298-3.749l.131-.307c1.449-.505 2.491-1.883 2.491-3.5 0-2.044-1.664-3.706-3.709-3.706s-3.709 1.662-3.709 3.706c0 1.031.424 1.965 1.107 2.638l-.388.806c-.624 1.281-1.332 2.734-1.6 4.346-.532 3.203.326 5.764 2.415 7.21C3.836 31.655 5.123 32 6.418 32c2.439 0 4.906-1.224 7.319-2.422 1.738-.862 3.535-1.754 5.31-2.191.66-.163 1.34-.261 2.059-.364 1.427-.206 2.902-.418 4.209-1.174 1.515-.877 2.552-2.347 2.845-4.034.252-1.448-.051-2.899-.79-4.129a3.68 3.68 0 0 0 .543-1.929z" />
</svg>
